X:16372
T:Tempest, The
R:reel
S:Live recording of Matt Molloy from Miltown -82
H:See also #282.
N:I'm not sure exactly what grace notes he's using (e.g. c or B),
N:but the ones I've written out should give you an idea, anyway.
Z:id:hn-reel-722
M:C|
Q:1/2=105
K:Dmix
(3ded cA {c}GE~E2|DEcE dEcE|AdcA GEcE|{A}EDCD {A}ED.D2|
(3d{a}d{f}d cA GE~E2|DE~E2 cE~E2|DE=FG AGcG|{A}EDCD {A}ED.D2|
(3ded cA {c}GE~E2|DEcE dE.c2|AdcA GEcE|{A}EDCD {A}ED.D2|
(3d{a}d{f}d cA GE~E2|DE~E2 cE~E2|DE=FA GEcG|{A}EDCD {A}ED.D2||
(3ded ed cAGc|JA2cA GE~E2|.d2{a}ed cde^f|{a}edcA .d2{c'}ag|
(3e^fg dg {a}edcA|cAGc AE~E2|DE=FA {c}GEcG|{A}EDCD {A}ED.D2|
(3ded ed cAGc|(3A{c}A{G}A cA GE~E2|.d2{a}ed cde^f|{a}edce .d2{c'}ag|
(3e^fg dg {a}edcA|cAGc AE~E2|DE=FG AGcG|{A}EDCD {A}ED.D2||
